!!!SOCIAL_FUNCTION:	love songs
!!!PDT:	1943
!!!OTL: No_78_I_Wish_I_Were_a_Cloud.krn
!!!REG: British Columbia
**kern
*staff1
=1-
=
*clefF4
*k[]
*M3/4
2d\
(8c\L
8e\J)
=2
8.c\L
16d\Jk
4..c\
16G\
=3||
*M2/4
12c\L
12c\
12c\J
8c\
16r
16c\
=4||
*M3/4
2d\
8c\L
8A\J
=5||
*M2/4
4d\
8.c\L
16A\Jk
=6
4..G\
16E\
=7
12G\L
12G\
12G\J
8G\
16r
16G\
=8||
*M3/4
(4.c\
8A\)
8A\L
8G\J
=9||
*M2/4
4c\
8.G\L
16E\Jk
=10
4D\
8r
8D\
=11
4C/
4r
=12||
*M3/4
(4G\
12G\L)
12F\
12D\J
12G\L
12F\
12D;\J
=13
2C/
4r
==:|!
*-
